packages/bpk-svgs/src/icons/sm/policy.svg

<svg xmlns="http://www.w3.org/2000/svg" viewBox="0 0 18 18" enable-background="new 0 0 18 18"><path d="M11 1h-7.143c-.473 0-.857.358-.857.8v14.4c0 .442.384.8.857.8h10.286c.473 0 .857-.358.857-.8v-11.2l-4-4zm1 10.499c0 2.66-3 3.501-3 3.501s-3-.841-3-3.501v-3.177h.098c.199.438.74.76 1.402.76.817 0 1.478-.481 1.497-1.08l.001-.001h.004l.001.001c.019.598.68 1.08 1.497 1.08.661 0 1.203-.322 1.402-.76h.098v3.177zm-1.488-5.499c-.283 0-.512-.229-.512-.512v-3.488l4 4h-3.488z"/></svg>

<svg xmlns="http://www.w3.org/2000/svg" viewBox="0 0 18 18"><path d="M11 1H3.857C3.384 1 3 1.358 3 1.8v14.4c0 .442.384.8.857.8h10.286c.473 0 .857-.358.857-.8V5l-4-4zm1 10.499C12 14.159 9 15 9 15s-3-.841-3-3.501V8.322h.098c.199.438.74.76 1.402.76.817 0 1.478-.481 1.497-1.08l.001-.001h.004l.001.001c.019.598.68 1.08 1.497 1.08.661 0 1.203-.322 1.402-.76H12v3.177zM10.512 6A.512.512 0 0 1 10 5.488V2l4 4h-3.488z"/></svg>
